svgs/sharp-light/cowbell.svg

<svg xmlns="http://www.w3.org/2000/svg" viewBox="0 0 448 512"><!--! Font Awesome Pro 6.6.0 by @fontawesome - https://fontawesome.com License - https://fontawesome.com/license (Commercial License) Copyright 2024 Fonticons, Inc. --><path d="M144 0L128 0l0 16 0 80L64 96 6.4 384 0 416l32.6 0 382.7 0 32.6 0-6.4-32L384 96l-64 0 0-80 0-16L304 0 144 0zM288 96L160 96l0-64 128 0 0 64zM144 128l160 0 53.8 0L409 384 39 384 90.2 128l53.8 0zm16 320c0 35.3 28.7 64 64 64s64-28.7 64-64l-32 0c0 17.7-14.3 32-32 32s-32-14.3-32-32l-32 0z"/></svg>

<svg xmlns="http://www.w3.org/2000/svg" viewBox="0 0 448 512"><!--! Font Awesome Pro 6.4.2 by @fontawesome - https://fontawesome.com License - https://fontawesome.com/license (Commercial License) Copyright 2023 Fonticons, Inc. --><path d="M144 0H128V16 96H64L6.4 384 0 416H32.6 415.4 448l-6.4-32L384 96H320V16 0H304 144zM288 96H160V32H288V96zM144 128H304h53.8L409 384H39L90.2 128H144zm16 320c0 35.3 28.7 64 64 64s64-28.7 64-64H256c0 17.7-14.3 32-32 32s-32-14.3-32-32H160z"/></svg>
